javascript.info/1-js/05-data-types/04-array/array-speed.svg

<?xml version="1.0" encoding="UTF-8"?>
<svg width="354px" height="173px" viewBox="0 0 354 173" version="1.1" xmlns="http://www.w3.org/2000/svg" xmlns:xlink="http://www.w3.org/1999/xlink">
    <!-- Generator: sketchtool 55.2 (78181) - https://sketchapp.com -->
    <title>array-speed.svg</title>
    <desc>Created with sketchtool.</desc>
    <g id="array" stroke="none" stroke-width="1" fill="none" fill-rule="evenodd">
        <g id="array-speed.svg">
            <rect id="Rectangle-1" stroke="#E8C48E" stroke-width="2" fill="#FFF9EB" x="109" y="93" width="35" height="62"></rect>
            <rect id="Rectangle-2" stroke="#E8C48E" stroke-width="2" fill="#FFF9EB" x="145" y="93" width="35" height="62"></rect>
            <text id="0" font-family="OpenSans-Bold, Open Sans" font-size="14" font-weight="bold" line-spacing="17" fill="#8A704D">
                <tspan x="122.5" y="128.5">0</tspan>
            </text>
            <text id="1" font-family="OpenSans-Bold, Open Sans" font-size="14" font-weight="bold" line-spacing="17" fill="#8A704D">
                <tspan x="159.5" y="128.5">1</tspan>
            </text>
            <rect id="Rectangle-3" stroke="#E8C48E" stroke-width="2" fill="#FFF9EB" x="181" y="93" width="35" height="62"></rect>
            <text id="2" font-family="OpenSans-Bold, Open Sans" font-size="14" font-weight="bold" line-spacing="17" fill="#8A704D">
                <tspan x="195.5" y="128.5">2</tspan>
            </text>
            <rect id="Rectangle-4" stroke="#E8C48E" stroke-width="2" fill="#FFF9EB" x="217" y="93" width="35" height="62"></rect>
            <text id="3" font-family="OpenSans-Bold, Open Sans" font-size="14" font-weight="bold" line-spacing="17" fill="#8A704D">
                <tspan x="231.5" y="128.5">3</tspan>
            </text>
            <polygon id="Shape-5" fill="#EE6B47" transform="translate(326.500000, 106.500000) rotate(-90.000000) translate(-326.500000, -106.500000) " points="326.5 117.5 331 111.30787 328 111.30787 328 95.5 325 95.5 325 111.30787 322 111.30787"></polygon>
            <rect id="Rectangle-5" stroke="#E8C48E" stroke-width="2" fill="#FFF9EB" x="264" y="95" width="46" height="22"></rect>
            <text id="pop" font-family="OpenSans-Bold, Open Sans" font-size="14" font-weight="bold" fill="#8A704D">
                <tspan x="273.806641" y="110">pop</tspan>
            </text>
            <polygon id="Shape-2" fill="#EE6B47" transform="translate(94.500000, 106.500000) rotate(-90.000000) translate(-94.500000, -106.500000) " points="94.5 117.5 99 111.30787 96 111.30787 96 95.5 93 95.5 93 111.30787 90 111.30787"></polygon>
            <rect id="Rectangle-6" stroke="#E8C48E" stroke-width="2" fill="#FFF9EB" x="19" y="96" width="61" height="22"></rect>
            <text id="unshift" font-family="OpenSans-Bold, Open Sans" font-size="14" font-weight="bold" fill="#8A704D">
                <tspan x="23.8334961" y="112">unshift</tspan>
            </text>
            <polygon id="Shape-3" fill="#EE6B47" transform="translate(326.500000, 141.500000) scale(-1, 1) rotate(-90.000000) translate(-326.500000, -141.500000) " points="326.5 152.5 331 146.30787 328 146.30787 328 130.5 325 130.5 325 146.30787 322 146.30787"></polygon>
            <rect id="Rectangle-7" stroke="#E8C48E" stroke-width="2" fill="#FFF9EB" transform="translate(287.000000, 141.000000) scale(-1, 1) translate(-287.000000, -141.000000) " x="264" y="130" width="46" height="22"></rect>
            <text id="push" font-family="OpenSans-Bold, Open Sans" font-size="14" font-weight="bold" fill="#8A704D">
                <tspan x="269.889648" y="146">push</tspan>
            </text>
            <polygon id="Shape-4" fill="#EE6B47" transform="translate(93.500000, 141.500000) scale(-1, 1) rotate(-90.000000) translate(-93.500000, -141.500000) " points="93.5 152.5 98 146.30787 95 146.30787 95 130.5 92 130.5 92 146.30787 89 146.30787"></polygon>
            <rect id="Rectangle-8" stroke="#E8C48E" stroke-width="2" fill="#FFF9EB" transform="translate(48.500000, 142.000000) scale(-1, 1) translate(-48.500000, -142.000000) " x="18" y="131" width="61" height="22"></rect>
            <text id="shift" font-family="OpenSans-Bold, Open Sans" font-size="14" font-weight="bold" fill="#8A704D">
                <tspan x="32.534668" y="147">shift</tspan>
            </text>
            <path d="M329.692702,35.9208538 C328.741159,33.4418996 322.380448,25.276771 321.06325,24.8393085 C319.747733,24.402684 316.967917,24.5476668 316.967917,24.5476668 C315.724691,10.6226153 312.654031,9.09233456 310.534075,7.5612158 C308.413277,6.0309351 308.631829,12.0824997 308.631829,12.0824997 C307.90052,9.53063511 304.170841,5.37474135 301.611258,6.0309351 C299.051675,6.68712885 300.442004,15.0718268 300.807658,17.403284 C301.174994,19.7372554 304.464206,23.0894585 305.705751,24.9122189 C306.948977,26.7341413 306.291639,28.3381704 306.291639,28.3381704 C305.267806,29.7972168 305.414068,33.4662031 305.414068,33.4662031 C302.856166,33.052206 300.369713,35.9937642 300.369713,35.9937642 C294.591528,33.5164861 291.284664,33.4662031 291.284664,33.4662031 C273.750048,33.6405177 271.518293,50.2808537 271.260234,55.8002561 C270.633997,55.5287276 269.763991,55.5362701 268.640969,56.4178995 C266.05953,58.4451443 267.901253,60.9291268 267.901253,60.9291268 C267.174147,60.7296707 266.453765,57.3883623 266.453765,57.3883623 C264.803696,60.9064994 267.803746,63.3091909 267.803746,63.3091909 C266.685767,63.5480354 264.836478,62.2985017 264.836478,62.2985017 C265.01132,62.533994 266.168807,64.3316129 268.417373,66.6789931 C271.25519,69.6389884 275.440466,69.0012318 277.504104,68.9216169 C277.578075,68.9367018 277.641119,68.9299974 277.69996,68.9132364 C277.718453,68.9132364 277.741149,68.9115603 277.759642,68.9115603 L277.769729,68.8864188 C278.094195,68.7422741 278.351414,68.2838603 279.698873,68.7338936 L281.430479,69.8200074 C281.430479,69.8200074 296.731659,69.9616379 299.127328,69.8200074 C300.426873,69.7429067 297.810971,66.0295037 297.810971,66.0295037 C302.563642,65.737024 305.123225,63.987174 305.123225,63.987174 L312.46574,69.9616379 L320.168867,69.9616379 C321.682762,69.9616379 320.754755,68.3442 320.754755,68.3442 L313.531603,61.7998615 L314.335203,60.4154016 C317.114179,59.8321183 319.088714,57.1344329 319.379557,56.624898 C319.673762,56.1145251 319.454369,52.3240215 319.454369,52.3240215 C319.454369,52.3240215 319.747733,52.6885736 320.989278,51.1566168 C322.233345,49.625498 320.843857,47.2202923 320.479043,46.7090813 C320.114229,46.2003845 319.382079,42.989812 319.382079,42.989812 C319.382079,42.989812 324.280171,42.6981704 325.451107,42.114887 C326.61868,41.5341178 330.642564,38.3989699 329.692702,35.9208538 L329.692702,35.9208538 Z" id="Shape" fill="#E8C48F"></path>
            <path d="M85.866,34.289 C81.305,36.924 81.449,43.361 70.284,51.976 C67.566,54.073 73.161,65.079 70.738,67.532 C68.27,70.031 58.388,70.155 55.999,68.792 C52.482,66.785 55.239,61.549 56.026,53.906 C48.82,54.641 46.485,54.521 39.243,54.219 C40.347,60.018 41.962,66.465 39.62,68.589 C37.711,70.32 28.422,70.508 25.517,68.611 C21.882,66.237 28.151,52.736 26.026,52.518 C23.581,52.268 8.673,52.852 11.31,36.676 C14.099,40.752 18.87,44.588 24.342,42.864 C25.088,29.141 33.413,16.796 46.7,16.796 C59.987,16.796 69.384,27.103 69.454,39.875 C77.321,33.967 71.538,19.449 80.968,14.018 C87.68,10.152 95.531,12.149 99.275,18.275 C101.23,21.474 101.84,27.115 99.416,30.213 C95.809,34.823 88.995,32.481 85.866,34.289 L85.866,34.289 Z" id="Shape" fill="#E8C48F"></path>
        </g>
    </g>
</svg>

<svg xmlns="http://www.w3.org/2000/svg" width="354" height="173" viewBox="0 0 354 173"><defs><style>@import url(https://fonts.googleapis.com/css?family=Open+Sans:bold,italic,bolditalic%7CPT+Mono);@font-face{font-family:&apos;PT Mono&apos;;font-weight:700;font-style:normal;src:local(&apos;PT MonoBold&apos;),url(/pack/modules/styles/blocks/font/PTMonoBold.woff2) format(&apos;woff2&apos;),url(/pack/modules/styles/blocks/font/PTMonoBold.woff) format(&apos;woff&apos;),url(/pack/modules/styles/blocks/font/PTMonoBold.ttf) format(&apos;truetype&apos;)}</style></defs><g id="array" fill="none" fill-rule="evenodd" stroke="none" stroke-width="1"><g id="array-speed.svg"><path id="Rectangle-1" fill="#FFF9EB" stroke="#E8C48E" stroke-width="2" d="M109 93h35v62h-35z"/><path id="Rectangle-2" fill="#FFF9EB" stroke="#E8C48E" stroke-width="2" d="M145 93h35v62h-35z"/><text id="0" fill="#8A704D" font-family="OpenSans-Bold, Open Sans" font-size="14" font-weight="bold"><tspan x="122.5" y="128.5">0</tspan></text><text id="1" fill="#8A704D" font-family="OpenSans-Bold, Open Sans" font-size="14" font-weight="bold"><tspan x="159.5" y="128.5">1</tspan></text><path id="Rectangle-3" fill="#FFF9EB" stroke="#E8C48E" stroke-width="2" d="M181 93h35v62h-35z"/><text id="2" fill="#8A704D" font-family="OpenSans-Bold, Open Sans" font-size="14" font-weight="bold"><tspan x="195.5" y="128.5">2</tspan></text><path id="Rectangle-4" fill="#FFF9EB" stroke="#E8C48E" stroke-width="2" d="M217 93h35v62h-35z"/><text id="3" fill="#8A704D" font-family="OpenSans-Bold, Open Sans" font-size="14" font-weight="bold"><tspan x="231.5" y="128.5">3</tspan></text><path id="Shape-5" fill="#EE6B47" d="M326.5 117.5l4.5-6.192h-3V95.5h-3v15.808h-3z" transform="rotate(-90 326.5 106.5)"/><path id="Rectangle-5" fill="#FFF9EB" stroke="#E8C48E" stroke-width="2" d="M264 95h46v22h-46z"/><text id="pop" fill="#8A704D" font-family="OpenSans-Bold, Open Sans" font-size="14" font-weight="bold"><tspan x="273.807" y="110">pop</tspan></text><path id="Shape-2" fill="#EE6B47" d="M94.5 117.5l4.5-6.192h-3V95.5h-3v15.808h-3z" transform="rotate(-90 94.5 106.5)"/><path id="Rectangle-6" fill="#FFF9EB" stroke="#E8C48E" stroke-width="2" d="M19 96h61v22H19z"/><text id="unshift" fill="#8A704D" font-family="OpenSans-Bold, Open Sans" font-size="14" font-weight="bold"><tspan x="23.833" y="112">unshift</tspan></text><path id="Shape-3" fill="#EE6B47" d="M326.5 152.5l4.5-6.192h-3V130.5h-3v15.808h-3z" transform="matrix(0 -1 -1 0 468 468)"/><path id="Rectangle-7" fill="#FFF9EB" stroke="#E8C48E" stroke-width="2" d="M310 130h-46v22h46z"/><text id="push" fill="#8A704D" font-family="OpenSans-Bold, Open Sans" font-size="14" font-weight="bold"><tspan x="269.89" y="146">push</tspan></text><path id="Shape-4" fill="#EE6B47" d="M93.5 152.5l4.5-6.192h-3V130.5h-3v15.808h-3z" transform="matrix(0 -1 -1 0 235 235)"/><path id="Rectangle-8" fill="#FFF9EB" stroke="#E8C48E" stroke-width="2" d="M79 131H18v22h61z"/><text id="shift" fill="#8A704D" font-family="OpenSans-Bold, Open Sans" font-size="14" font-weight="bold"><tspan x="32.535" y="147">shift</tspan></text><path id="Shape" fill="#E8C48F" d="M329.693 35.92c-.952-2.478-7.313-10.643-8.63-11.08-1.315-.437-4.095-.292-4.095-.292-1.243-13.925-4.314-15.456-6.434-16.987-2.12-1.53-1.902 4.521-1.902 4.521-.731-2.551-4.461-6.707-7.02-6.051-2.56.656-1.17 9.04-.804 11.372.367 2.334 3.656 5.686 4.898 7.51 1.243 1.821.586 3.425.586 3.425-1.024 1.46-.878 5.128-.878 5.128-2.558-.414-5.044 2.528-5.044 2.528-5.778-2.478-9.085-2.528-9.085-2.528-17.535.175-19.767 16.815-20.025 22.334-.626-.271-1.496-.264-2.619.618-2.581 2.027-.74 4.511-.74 4.511-.727-.2-1.447-3.54-1.447-3.54-1.65 3.517 1.35 5.92 1.35 5.92-1.118.239-2.968-1.01-2.968-1.01.175.235 1.333 2.033 3.581 4.38 2.838 2.96 7.023 2.322 9.087 2.243a.4.4 0 00.196-.009l.06-.001.01-.026c.324-.144.581-.602 1.929-.152l1.731 1.086s15.302.142 17.697 0c1.3-.077-1.316-3.79-1.316-3.79 4.753-.293 7.312-2.043 7.312-2.043l7.343 5.975h7.703c1.514 0 .586-1.618.586-1.618l-7.223-6.544.803-1.385c2.78-.583 4.754-3.28 5.045-3.79.294-.51.074-4.301.074-4.301s.294.365 1.535-1.167c1.244-1.532-.145-3.937-.51-4.448-.365-.509-1.097-3.72-1.097-3.72s4.898-.29 6.07-.874c1.167-.58 5.19-3.716 4.24-6.194zM85.866 34.289c-4.561 2.635-4.417 9.072-15.582 17.687-2.718 2.097 2.877 13.103.454 15.556-2.468 2.499-12.35 2.623-14.739 1.26-3.517-2.007-.76-7.243.027-14.886-7.206.735-9.541.615-16.783.313 1.104 5.799 2.719 12.246.377 14.37-1.909 1.731-11.198 1.919-14.103.022-3.635-2.374 2.634-15.875.509-16.093-2.445-.25-17.353.334-14.716-15.842 2.789 4.076 7.56 7.912 13.032 6.188.746-13.723 9.071-26.068 22.358-26.068s22.684 10.307 22.754 23.079c7.867-5.908 2.084-20.426 11.514-25.857 6.712-3.866 14.563-1.869 18.307 4.257 1.955 3.199 2.565 8.84.141 11.938-3.607 4.61-10.421 2.268-13.55 4.076z"/></g></g></svg>
